X: 9
T: La Castellana
P: AABBCC x 3
C: arr. Aaron Elkiss
N: 
N: 
K: D minor
M: 3/4
L: 1/8
P: A
D2E2 |: "Dm"F3EF2 | "C"G3FG2 | "F"A4A2 | "F"A3B"Dm"c2 | "Gm"B4"F"A2 | "C"G3FG2 | \
"F"A4A2 |  [1 "F"A2D2E2 :|]  [2 "F"A2E2F2 :: 
P: B
"C"G4G2 | "C"G2E2F2 | "C"G4G2 | \
"C"G2A2G2 | "Dm"A4"C"G2 | "Dm"F4"G"D2 | "A"E4E2 | "A"E4F2 :: 
P: C
"C"G3FG2 | \
"C"E3FG2 | "Dm"F3ED2 | "Em"E3^CD2 | "A"E4"Dm"D2 | "G"D4"A"^C2 | "D"D4"D"D2 | \
 [1 "D"D4F2 :|]  [2 "D"D2 :| 

